symbols/web/snooze/materialsymbolsoutlined/snooze_wght700grad200_48px.svg

<svg xmlns="http://www.w3.org/2000/svg" height="48" width="48"><path d="M18.65 32.25H29.3V28.7h-5.5l5.5-6.15V19.3H18.65v3.55h5.65l-5.65 6.4Zm5.3 12.7q-3.95 0-7.4-1.5t-6.05-4.025q-2.6-2.525-4.1-6-1.5-3.475-1.5-7.475 0-3.95 1.5-7.4t4.1-6.025Q13.1 9.95 16.55 8.4q3.45-1.55 7.4-1.55t7.4 1.55q3.45 1.55 6 4.125t4.1 6Q43 21.95 43 25.95t-1.55 7.475q-1.55 3.475-4.1 6t-6 4.025q-3.45 1.5-7.4 1.5Zm0-18.9ZM10.2 3.25l2.45 2.45-9.1 8.85-2.4-2.45Zm27.45 0 9.15 8.85-2.45 2.45L35.2 5.7ZM23.95 40.4q6.05 0 10.25-4.2t4.2-10.25q0-6-4.2-10.25t-10.3-4.25q-5.95 0-10.2 4.225Q9.45 19.9 9.45 25.95q0 6.05 4.225 10.25t10.275 4.2Z"/></svg>

<svg xmlns="http://www.w3.org/2000/svg" height="48" width="48"><path d="M18.65 32.25H29.3V28.7H23.8L29.3 22.55V19.3H18.65V22.85H24.3L18.65 29.25ZM23.95 44.95Q20 44.95 16.55 43.45Q13.1 41.95 10.5 39.425Q7.9 36.9 6.4 33.425Q4.9 29.95 4.9 25.95Q4.9 22 6.4 18.55Q7.9 15.1 10.5 12.525Q13.1 9.95 16.55 8.4Q20 6.85 23.95 6.85Q27.9 6.85 31.35 8.4Q34.8 9.95 37.35 12.525Q39.9 15.1 41.45 18.525Q43 21.95 43 25.95Q43 29.95 41.45 33.425Q39.9 36.9 37.35 39.425Q34.8 41.95 31.35 43.45Q27.9 44.95 23.95 44.95ZM23.95 26.05Q23.95 26.05 23.95 26.05Q23.95 26.05 23.95 26.05Q23.95 26.05 23.95 26.05Q23.95 26.05 23.95 26.05Q23.95 26.05 23.95 26.05Q23.95 26.05 23.95 26.05Q23.95 26.05 23.95 26.05Q23.95 26.05 23.95 26.05ZM10.2 3.25 12.65 5.7 3.55 14.55 1.15 12.1ZM37.65 3.25 46.8 12.1 44.35 14.55 35.2 5.7ZM23.95 40.4Q30 40.4 34.2 36.2Q38.4 32 38.4 25.95Q38.4 19.95 34.2 15.7Q30 11.45 23.9 11.45Q17.95 11.45 13.7 15.675Q9.45 19.9 9.45 25.95Q9.45 32 13.675 36.2Q17.9 40.4 23.95 40.4Z"/></svg>
